X:1
T:Materna, CMD
T:Materna, CMD
T:Samuel Augustus Ward, 1882
T:Public Domain Courtesy of the Cyber Hymnal™
C:Samuel Augustus Ward, 1882
Z:Public Domain
Z:Courtesy of the Cyber Hymnal™
%%score ( 1 2 ) ( 3 4 )
L:1/8
Q:1/4=110
M:4/4
K:C
V:1 treble 
V:2 treble 
V:3 bass 
V:4 bass 
V:1
 [EG]2 | [EG]3 [CE] [CE]2 [EG]2 | [DG]3 [B,D] [B,D]2 [CE]2 | [DF]2 [DG]2 [FA]2 [FB]2 | G6 [DG]2 | %5
 [EG]3 [CE] [CE]2 [EG]2 | [DG]3 D D2 [Gd]2 | [G^c]2 [Gd]2 [^Fe]2 [FA]2 | d6 G2 | %9
 [Ge]3 [Ge] [Gd]2 [Ec]2 | [Fc]3 [GB] [GB]2 [Gc]2 | [Fd]2 [FB]2 [FA]2 [FG]2 | c6 [Gc]2 | %13
 [Fc]3 [FA] [FA]2 [Fc]2 | [Ec]3 [EG] [EG]2 G2 | A2 c2 G2 [Fd]2 | [Ec]6 |] %17
V:2
 x2 | x8 | x8 | x8 | (E4 F2) x2 | x8 | x3 D D2 x2 | x8 | (G2 ^F2 =F2) G2 | x8 | x8 | x8 | %12
 (E4 F2) x2 | x8 | x6 G2 | A2 c2 G2 x2 | x6 |] %17
V:3
 [C,C]2 | [C,C]3 [C,G,] [C,G,]2 [G,,C]2 | [D,B,]3 [D,G,] [D,G,]2 [G,,G,]2 | %3
 [D,B,]2 [D,B,]2 [G,,D]2 [G,,D]2 | ([C,C]2 [^C,_B,]2 [D,=B,]2) [G,,B,]2 | %5
 [C,C]3 [C,G,] [C,G,]2 [A,,C]2 | [D,B,]3 [D,B,] [D,B,]2 [D,B,]2 | [D,B,]2 [D,B,]2 [D,C]2 [A,C]2 | %8
 ([G,B,]2 [A,C]2 [B,D]2) G,2 | [G,C]3 [E,C] [E,C]2 [G,C]2 | [G,D]3 [D,D] [D,D]2 [E,C]2 | %11
 [F,B,]2 [G,B,]2 [A,C]2 [B,D]2 | (C2 G,2 A,2) [C,_B,]2 | [F,A,]3 [F,A,] [F,A,]2 [D,A,]2 | %14
 G,3 [G,C] [G,C]2 G,2 | A,2 C2 G,2 [G,,B,]2 | [C,C]6 |] %17
V:4
 x2 | x8 | x8 | x8 | x8 | x8 | x8 | x8 | x6 G,2 | x8 | x8 | x8 | x2 C,4 x2 | x8 | G,3 G,2 x3 | %15
 A,2 C2 G,2 x2 | x6 |] %17

